X:46
T:Pollonesse 1832-46
O:Södermanland
R:Slängpolska
B:Notbok 1832 från Sörmlands museum
N:[[http://www.sormlandsmusikarkiv.se/noter/1832/1832.html]]
Z:Jonas Brunskog
M: 3/4
L: 1/16
K: G
|:GABc BdgB A2Bc | c2Bc A2Bc dcBA | GABc BdgB A2Bc | dBcA G4 G,4 :|
|:b2a2 g2f2 g2e2 | a2>g2 fdfa gfed | b2a2 g2f2 g2e2 | a2>g2 fgef d4 |
e2d2 c2B2 c2A2 | d2>c2 BGBd cBAG | e2d2 c2B2 c2A2 | d2>c2 BGBd cBAG |
GABc BdgB A2Bc | c2Bc AFAc dcBA | BdBd efgB A2Bc | dBcA G4 G,4 :|

